X: 25565
T: Marion MacLean Of Eoligarry
R: waltz
M: 3/4
K: Dmajor
FE|D3EFA|E4FE|D2d2c2|B3BdB|AGFDAF|
E4DE|F3GF2|E4FE|D3EFA|E4FE|
D2d2c2|B3BAG|FGA2F2|E6|D6:|
fga3d|fe4|fed2c2|A2B3B|AGFAd2|
f2e4|dcBdf2|b2a4|fga3d|fge4|
fed2c2|A2B4|AGFGA2|F2E4|D6|
fga3d|fe4|fed2c2|A2B3B|
AGFAd2|f2e4|dcBdf2|b2a4|
AGF3E|FGA4|Bcd2c2|A2B4|
AGFGA2|F2E4|D6|

